X:125
T:RVW2/2/125 Mossy Banks Of The Lea
C:Mr. Woolford, Ramsbury, Wiltshire, 27 August 1904
L:1/4
Q:1/4=100
M:3/4
I:linebreak $
K:D
"^(Editorial suggestion " D | E B B | G A F | D E D | E B B | G A F | E2 D |$ E B"^(a)" B/B/ | 
w: When|first in this|coun- try a|stran- ger Cu-|rio- si- ty|caused me to|roam Over|Eu- rope I re-|
"^(b)" G/G/ A F | D E"^(c)" D/D/ | E B B | G A F | E2 (E/F/) |$ G A B | d c B | e E2- | E2 E | 
w: solved to be a|stran- ger So I|left Phi- la-|del- phia my|home. We _|quick- ly sailed|o- ver to|Eng- land|_ Where|
G A B | d c B | e2"^(d)" e/e/ |$ d B A | G A F | D E"^(e)" D/D/ | E B B | G A F | E2 ||$ D | 
w: forms of great|beau- ty do|shine Till at|length I be-|held a fair|dam- sel And I|wished in my|heart she was|mine.||
E B B | G A F | D E D | E B B | G A F | E2 D |$ E B"^(a) var." B |"^(b) var." G A F | 
w: ||||||||
D E"^(c) var." D | E B B | G A F | E2 E/F/ |$ G A B | d c B | e E2- | E2 E | G A B | d c B | 
w: ||||||||||
e2"^(d) var." e |$ d B A | G A F | D E"^(e) var." D | E B B | G A F | E2 |] 
w: |||||||



